symbols/web/kebab_dining/materialsymbolsrounded/kebab_dining_wght700gradN25fill1_24px.svg

<svg xmlns="http://www.w3.org/2000/svg" height="24" width="24"><path d="M6.125 22.1v-2.15H5.5q-1.075 0-1.875-.8t-.8-1.875q0-1.1.8-1.9.8-.8 1.875-.8h.625v-.925h-1.8q-.625 0-1.062-.438-.438-.437-.438-1.062V9.775q0-.6.438-1.05.437-.45 1.062-.45h1.8V7.35H5.5q-1.075 0-1.875-.8t-.8-1.875q0-1.1.8-1.9.8-.8 1.875-.8h.625V1.8q0-.35.25-.613.25-.262.625-.262.35 0 .525.325.175.325.375.55v.175h.6q1.1 0 1.9.8.8.8.8 1.9 0 1.075-.8 1.875t-1.9.8h-.6v.925h1.8q.6 0 1.05.45.45.45.45 1.05v2.375q0 .625-.45 1.062-.45.438-1.05.438H7.9v.925h.6q1.1 0 1.9.8.8.8.8 1.9 0 1.075-.8 1.875t-1.9.8h-.6v2.15q0 .375-.262.638Q7.375 23 7 23t-.625-.262q-.25-.263-.25-.638Zm10 0v-2.15H15.5q-1.075 0-1.875-.8t-.8-1.875q0-1.1.8-1.9.8-.8 1.875-.8h.625v-.925h-1.8q-.625 0-1.062-.438-.438-.437-.438-1.062V9.775q0-.6.438-1.05.437-.45 1.062-.45h1.8V7.35H15.5q-1.075 0-1.875-.8t-.8-1.875q0-1.1.8-1.9.8-.8 1.875-.8h.625V1.8q0-.35.25-.613.25-.262.625-.262.35 0 .525.325.175.325.375.55v.175h.6q1.1 0 1.9.8.8.8.8 1.9 0 1.075-.8 1.875t-1.9.8h-.6v.925h1.8q.6 0 1.05.45.45.45.45 1.05v2.375q0 .625-.45 1.062-.45.438-1.05.438h-1.8v.925h.6q1.1 0 1.9.8.8.8.8 1.9 0 1.075-.8 1.875t-1.9.8h-.6v2.15q0 .375-.262.638Q17.375 23 17 23t-.625-.262q-.25-.263-.25-.638Z"/></svg>

<svg xmlns="http://www.w3.org/2000/svg" height="24" width="24"><path d="M6.125 22.1V19.95H5.5Q4.425 19.95 3.625 19.15Q2.825 18.35 2.825 17.275Q2.825 16.175 3.625 15.375Q4.425 14.575 5.5 14.575H6.125V13.65H4.325Q3.7 13.65 3.263 13.212Q2.825 12.775 2.825 12.15V9.775Q2.825 9.175 3.263 8.725Q3.7 8.275 4.325 8.275H6.125V7.35H5.5Q4.425 7.35 3.625 6.55Q2.825 5.75 2.825 4.675Q2.825 3.575 3.625 2.775Q4.425 1.975 5.5 1.975H6.125V1.8Q6.125 1.425 6.375 1.175Q6.625 0.925 7 0.925Q7.35 0.925 7.525 1.237Q7.7 1.55 7.9 1.8V1.975H8.5Q9.6 1.975 10.4 2.775Q11.2 3.575 11.2 4.675Q11.2 5.75 10.4 6.55Q9.6 7.35 8.5 7.35H7.9V8.275H9.7Q10.3 8.275 10.75 8.725Q11.2 9.175 11.2 9.775V12.15Q11.2 12.775 10.75 13.212Q10.3 13.65 9.7 13.65H7.9V14.575H8.5Q9.6 14.575 10.4 15.375Q11.2 16.175 11.2 17.275Q11.2 18.35 10.4 19.15Q9.6 19.95 8.5 19.95H7.9V22.1Q7.9 22.5 7.638 22.75Q7.375 23 7 23Q6.625 23 6.375 22.75Q6.125 22.5 6.125 22.1ZM16.125 22.1V19.95H15.5Q14.425 19.95 13.625 19.15Q12.825 18.35 12.825 17.275Q12.825 16.175 13.625 15.375Q14.425 14.575 15.5 14.575H16.125V13.65H14.325Q13.7 13.65 13.263 13.212Q12.825 12.775 12.825 12.15V9.775Q12.825 9.175 13.263 8.725Q13.7 8.275 14.325 8.275H16.125V7.35H15.5Q14.425 7.35 13.625 6.55Q12.825 5.75 12.825 4.675Q12.825 3.575 13.625 2.775Q14.425 1.975 15.5 1.975H16.125V1.8Q16.125 1.425 16.375 1.175Q16.625 0.925 17 0.925Q17.35 0.925 17.525 1.237Q17.7 1.55 17.9 1.8V1.975H18.5Q19.6 1.975 20.4 2.775Q21.2 3.575 21.2 4.675Q21.2 5.75 20.4 6.55Q19.6 7.35 18.5 7.35H17.9V8.275H19.7Q20.3 8.275 20.75 8.725Q21.2 9.175 21.2 9.775V12.15Q21.2 12.775 20.75 13.212Q20.3 13.65 19.7 13.65H17.9V14.575H18.5Q19.6 14.575 20.4 15.375Q21.2 16.175 21.2 17.275Q21.2 18.35 20.4 19.15Q19.6 19.95 18.5 19.95H17.9V22.1Q17.9 22.5 17.638 22.75Q17.375 23 17 23Q16.625 23 16.375 22.75Q16.125 22.5 16.125 22.1ZM5.5 5.45H8.5Q8.825 5.45 9.062 5.225Q9.3 5 9.3 4.675Q9.3 4.35 9.062 4.112Q8.825 3.875 8.5 3.875H5.5Q5.175 3.875 4.95 4.112Q4.725 4.35 4.725 4.675Q4.725 5 4.95 5.225Q5.175 5.45 5.5 5.45ZM15.5 5.45H18.5Q18.825 5.45 19.062 5.225Q19.3 5 19.3 4.675Q19.3 4.35 19.062 4.112Q18.825 3.875 18.5 3.875H15.5Q15.175 3.875 14.95 4.112Q14.725 4.35 14.725 4.675Q14.725 5 14.95 5.225Q15.175 5.45 15.5 5.45ZM4.725 11.75H9.3V10.175H4.725ZM14.725 11.75H19.3V10.175H14.725ZM5.5 18.05H8.5Q8.825 18.05 9.062 17.825Q9.3 17.6 9.3 17.275Q9.3 16.95 9.062 16.712Q8.825 16.475 8.5 16.475H5.5Q5.175 16.475 4.95 16.712Q4.725 16.95 4.725 17.275Q4.725 17.6 4.95 17.825Q5.175 18.05 5.5 18.05ZM15.5 18.05H18.5Q18.825 18.05 19.062 17.825Q19.3 17.6 19.3 17.275Q19.3 16.95 19.062 16.712Q18.825 16.475 18.5 16.475H15.5Q15.175 16.475 14.95 16.712Q14.725 16.95 14.725 17.275Q14.725 17.6 14.95 17.825Q15.175 18.05 15.5 18.05ZM8.5 5.45H5.5Q5.175 5.45 4.95 5.225Q4.725 5 4.725 4.675Q4.725 4.35 4.95 4.112Q5.175 3.875 5.5 3.875H8.5Q8.825 3.875 9.062 4.112Q9.3 4.35 9.3 4.675Q9.3 5 9.062 5.225Q8.825 5.45 8.5 5.45ZM18.5 5.45H15.5Q15.175 5.45 14.95 5.225Q14.725 5 14.725 4.675Q14.725 4.35 14.95 4.112Q15.175 3.875 15.5 3.875H18.5Q18.825 3.875 19.062 4.112Q19.3 4.35 19.3 4.675Q19.3 5 19.062 5.225Q18.825 5.45 18.5 5.45ZM9.3 11.75H4.725V10.175H9.3ZM19.3 11.75H14.725V10.175H19.3ZM8.5 18.05H5.5Q5.175 18.05 4.95 17.825Q4.725 17.6 4.725 17.275Q4.725 16.95 4.95 16.712Q5.175 16.475 5.5 16.475H8.5Q8.825 16.475 9.062 16.712Q9.3 16.95 9.3 17.275Q9.3 17.6 9.062 17.825Q8.825 18.05 8.5 18.05ZM18.5 18.05H15.5Q15.175 18.05 14.95 17.825Q14.725 17.6 14.725 17.275Q14.725 16.95 14.95 16.712Q15.175 16.475 15.5 16.475H18.5Q18.825 16.475 19.062 16.712Q19.3 16.95 19.3 17.275Q19.3 17.6 19.062 17.825Q18.825 18.05 18.5 18.05Z"/></svg>
